P3
# Pixel lamp without the string
13 3
255
# Row 5 (Start of yellow base)
0 0 0  0 0 0  255 255 0  255 255 0  255 255 0  255 255 0  255 255 0  255 255 0  255 255 0  255 255 0  255 255 0  0 0 0  0 0 0
# Row 6
0 0 0  255 255 0  255 255 0  255 255 0  255 255 0  255 255 0  255 255 0  255 255 0  255 255 0  255 255 0  255 255 0  255 255 0  0 0 0
# Row 7 (Bottom yellow row)
255 255 0  255 255 0  255 255 0  255 255 0  255 255 0  255 255 0  255 255 0  255 255 0  255 255 0  255 255 0  255 255 0  255 255 0  255 255 0